X: 16
T: The Humours of Trim
R: jig
Z: 2009 John Chambers <jc:trillian.mit.edu>
M: 6/8
L: 1/8
K: D
|: "D"F2D DED | D2d "A7"cAG | "D"F2D DED | "A7"ABA GFE \
|  "D"F2D DED | D2d "A7"cAG | "D"FAF "G"GBG | "A7"ABA GFE :|
|: "D"D2d cAd | cAd "A7"cAG | "D"F2d cAG | FAF "A7"GFE \
|  "D"D2d "A7"cde | "D"fed "A7"cAG | "D"FAF "G"GBG | "A7"ABA GFE :|
%%sep 3 1 500
